Origami/64x64/apps/ease.svg

<svg width="64" height="64" version="1" xmlns="http://www.w3.org/2000/svg">
 <path d="m10 56.2v2c0 1.55 1.2264 2.8 2.75 2.8h38.5c1.524 0 2.75-1.25 2.75-2.8v-2c0 1.55-1.226 2.8-2.75 2.8h-38.5c-1.5236 0-2.75-1.25-2.75-2.8z" style="opacity:.2"/>
 <path d="m54 57.2v-50.4c0-1.5512-1.226-2.8-2.75-2.8h-38.5c-1.5236 0-2.75 1.2488-2.75 2.8v50.4c0 1.552 1.2264 2.8 2.75 2.8h38.5c1.524 0 2.75-1.248 2.75-2.8z" style="fill:#f58435"/>
 <path d="m22 24c-3.3136 0-6 2.6864-6 6s2.6864 6 6 6 6-2.6864 6-6h-6v-6zm10 0v4h14v-4h-14zm0 8v4h14v-4h-14zm-16 8v4h24v-4h-24z" style="fill:#d6352f"/>
 <path d="m12.75 4c-1.5236 0-2.75 1.2495812-2.75 2.8007812v1c0-1.5511999 1.2264-2.8007812 2.75-2.8007812h38.5c1.524 0 2.75 1.2495812 2.75 2.8007812v-1c0-1.5512-1.226-2.8007812-2.75-2.8007812h-38.5z" style="fill:#ffffff;opacity:.2"/>
</svg>

<svg xmlns="http://www.w3.org/2000/svg" width="64" height="64" version="1">
 <path style="opacity:0.2" d="m 10,56.2 0,2 c 0,1.55 1.2264,2.8 2.75,2.8 l 38.5,0 C 52.774,61 54,59.75 54,58.2 l 0,-2 c 0,1.55 -1.226,2.8 -2.75,2.8 l -38.5,0 C 11.2264,59 10,57.75 10,56.2 Z"/>
 <path style="fill:#f58435" d="M 54,57.2 54,6.8 C 54,5.2488 52.774,4 51.25,4 L 12.75,4 C 11.2264,4 10,5.2488 10,6.8 l 0,50.4 c 0,1.552 1.2264,2.8 2.75,2.8 l 38.5,0 C 52.774,60 54,58.752 54,57.2 Z"/>
 <path style="fill:#d6352f" d="m 22,24 c -3.3136,0 -6,2.6864 -6,6 0,3.3136 2.6864,6 6,6 3.3136,0 6,-2.6864 6,-6 l -6,0 0,-6 z m 10,0 0,4 14,0 0,-4 -14,0 z m 0,8 0,4 14,0 0,-4 -14,0 z m -16,8 0,4 24,0 0,-4 -24,0 z"/>
 <path style="opacity:0.2;fill:#ffffff" d="M 12.75 4 C 11.2264 4 10 5.2495812 10 6.8007812 L 10 7.8007812 C 10 6.2495813 11.2264 5 12.75 5 L 51.25 5 C 52.774 5 54 6.2495812 54 7.8007812 L 54 6.8007812 C 54 5.2495812 52.774 4 51.25 4 L 12.75 4 z"/>
</svg>
